X:95
T: FRISCH AUF GUT GSELL
N: E1124
O: Europa, Mitteleuropa, Deutschland
R: Trink -, Zech - Lied
M: 4/4
L: 1/4
K: G
ddd | ddee | c2
de | =fge2 | d2z
d | ggee | =ffd2 |
cAG2
_Bcd2 | A_Bc2 |
GABc | A2G2 |
_Bcd2 | A_Bc2 |
GABc | A2G2 |
GA_Bc | A2G2 | z

@@@ Tune index: 4779
